icons/op-zen-mode-24.svg

<svg width="24" height="24" viewBox="0 0 24 24" fill="none" xmlns="http://www.w3.org/2000/svg">
<path d="M9.375 5.875V5H5V9.375H5.875V6.47656L9.01953 9.73047L9.73047 9.01953L6.47656 5.875H9.375ZM18.125 17.5234L14.9805 14.2695L14.2695 14.9805L17.5234 18.125H14.625V19H19V14.625H18.125V17.5234ZM18.125 5H14.625V5.875H17.5234L14.2695 9.01953L14.9805 9.73047L18.125 6.47656V9.375H19V5H18.125ZM9.01953 14.2695L5.875 17.5234V14.625H5V19H9.375V18.125H6.47656L9.73047 14.9805L9.01953 14.2695Z" fill="black"/>
</svg>

<svg xmlns="http://www.w3.org/2000/svg" width="24" height="24" viewBox="0 0 24 24"><path d="M9.375 5.875V5H5v4.375h.875V6.477L9.02 9.73l.71-.71-3.253-3.145h2.898Zm8.75 11.648L14.98 14.27l-.71.71 3.253 3.145h-2.898V19H19v-4.375h-.875v2.898Zm0-12.523h-3.5v.875h2.898L14.27 9.02l.71.71 3.145-3.253v2.898H19V5h-.875ZM9.02 14.27l-3.145 3.253v-2.898H5V19h4.375v-.875H6.477L9.73 14.98l-.71-.71Z"/></svg>
